X: 8
T:Kesh Jig, The
T:Castle, The
M:6/8
L:1/8
R:Double Jig
K:G
D[|:GGG GAB|AAA ABd|edd gdd|edB dBA|!
GGG GAB|AAA ABd|edd gdB|1AGF G2D:|2AGF G2A|!
|:BBB dBd|ege dBA|BBB dBG|ABA AGA|!
BBB dBd|ege dBd|ggg aga|1bgf g2A:|2bgf g2D|]!
